src/assets/img/zoom.svg

<svg xmlns="http://www.w3.org/2000/svg" viewBox="0 0 24 24">
  <title>zoom</title>
  <path d="M15.5,14H14.71l-0.28-.27a6.51,6.51,0,1,0-.7.7L14,14.71V15.5l5,4.99L20.49,19Zm-6,0A4.5,4.5,0,1,1,14,9.5,4.494,4.494,0,0,1,9.5,14Z"/>
  <path d="M0,0H24V24H0V0Z" fill="none"/>
  <path d="M12,10H10v2H9V10H7V9H9V7h1V9h2v1Z"/>
</svg>

<?xml version="1.0" encoding="utf-8"?>
<!-- Generator: Adobe Illustrator 19.2.1, SVG Export Plug-In . SVG Version: 6.00 Build 0)  -->
<svg version="1.1" id="Layer_1" xmlns="http://www.w3.org/2000/svg" xmlns:xlink="http://www.w3.org/1999/xlink" x="0px" y="0px"
	 viewBox="0 0 24 24" style="enable-background:new 0 0 24 24;" xml:space="preserve">
<style type="text/css">
	.st0{fill:#207A89;}
	.st1{fill:none;}
</style>
<title>zoom</title>
<path class="st0" d="M15.5,14h-0.8l-0.3-0.3c2.3-2.7,2-6.8-0.7-9.2s-6.8-2-9.2,0.7s-2,6.8,0.7,9.2c2.4,2.1,6,2.1,8.5,0l0.3,0.3v0.8
	l5,5l1.5-1.5L15.5,14z M9.5,14C7,14,5,12,5,9.5S7,5,9.5,5S14,7,14,9.5C14,12,12,14,9.5,14C9.5,14,9.5,14,9.5,14z"/>
<path class="st1" d="M0,0h24v24H0V0z"/>
<path class="st0" d="M12,10h-2v2H9v-2H7V9h2V7h1v2h2V10z"/>
</svg>
